img/rune-1.svg

<svg width="33" height="10" viewBox="0 0 33 10" fill="none" xmlns="http://www.w3.org/2000/svg">
<g clip-path="url(#clip0)">
<path d="M3.50392 9.92126C2.79526 9.92126 3.14959 5.19685 3.14959 4.56693C3.14959 3.85827 3.14959 3.8189 2.63778 3.30709C2.00786 2.6378 1.37793 2.00788 0.748013 1.33858C0.748013 3.46457 0.748013 5.62992 0.748013 7.75591C0.748013 8.07087 0.984234 9.88189 0.393682 9.88189C-0.196869 9.88189 0.0393516 8.18898 0.0393516 7.87402C0.0393516 6.49607 0.0393516 5.11811 0.0393516 3.77953C0.0393516 2.79528 -0.118129 1.69292 0.0393516 0.708663C0.275572 -0.433069 1.14171 0.787403 1.53541 1.1811C2.16534 1.8504 3.2677 2.6378 3.74014 3.4252C3.93699 3.74016 3.85825 4.17323 3.85825 4.56693C3.85825 5.27559 3.85825 6.02362 3.85825 6.73229C3.81888 7.12599 4.13384 9.92126 3.50392 9.92126Z" fill="#F6C866"/>
<path d="M12.4409 2.83463C11.8897 2.28345 11.3386 1.73227 10.7874 1.18109C10.5118 0.905499 9.52754 -0.472454 9.13384 0.196838C8.89762 0.629909 9.09447 1.65353 9.09447 2.12597C9.09447 3.11022 9.09447 4.13385 9.09447 5.1181C9.09447 6.45668 9.09447 7.75589 9.09447 9.09448C9.09447 9.29133 9.01573 9.64566 9.21258 9.80314C9.60628 10.1575 9.76376 9.64566 9.80313 9.37007C9.96061 8.42518 9.76376 7.40156 9.80313 6.49605C9.8425 5.78739 10.3543 5.47243 10.8661 4.96062C11.1023 4.68503 12.874 3.2677 12.4409 2.83463ZM9.76376 5.07873C9.76376 3.77952 9.76376 2.44093 9.76376 1.14172C10.1181 1.49605 10.4724 1.85038 10.7874 2.20471C10.9449 2.36219 11.6929 2.91337 11.6929 3.11022C11.6929 3.30707 10.8661 3.937 10.7086 4.09448C10.4331 4.40944 10.1181 4.7244 9.76376 5.07873Z" fill="#F6C866"/>
<path d="M23.5039 10C23.1102 10 22.6378 9.25198 22.4016 9.05513C22.0079 8.66143 21.3779 7.71655 20.8661 7.5197C20.5905 7.40159 20.6299 7.48033 20.3149 7.79529C19.7638 8.34647 19.2519 8.85828 18.7008 9.40946C18.3858 9.72442 17.9921 10.2362 17.7165 9.56694C17.6378 9.37009 17.7165 8.93702 17.7165 8.74017C17.7165 7.36222 17.7165 5.98427 17.7165 4.56694C17.7165 3.3071 17.6771 2.04726 17.7165 0.787416C17.7165 0.472456 17.6378 1.46447e-05 18.1102 0.0393847C18.4645 0.0787548 18.9764 0.826786 19.1732 1.02364C19.5275 1.37797 20.1181 2.24411 20.5905 2.44096C20.9055 2.55907 20.9055 2.40159 21.2205 2.08663C21.7323 1.57482 22.2441 1.06301 22.7559 0.551196C23.0315 0.275605 24.1732 -0.511796 23.7401 0.551196C23.5433 0.984267 22.8346 1.45671 22.4803 1.81104C22.0472 2.24411 21.5748 2.95277 21.0236 3.26773C20.2362 3.7008 18.937 1.81104 18.3858 1.25986C18.3858 3.77954 18.3858 6.29923 18.3858 8.77954C18.8976 8.26773 19.3701 7.79529 19.8819 7.28348C20.3149 6.85041 20.5118 6.45671 21.1023 6.85041C21.7323 7.24411 22.2441 7.99214 22.7559 8.50395C22.874 8.54332 24.4882 10 23.5039 10Z" fill="#F6C866"/>
<path d="M32.2835 0.0393591C31.7323 -0.196861 30.1575 1.85038 29.7638 2.24408C29.252 1.73227 28.7402 1.22046 28.2284 0.70865C27.9134 0.39369 27.3229 -0.393712 27.0473 0.39369C26.8898 0.826761 27.0473 1.53542 27.0473 1.96849C27.0473 2.91337 27.0473 3.81889 27.0473 4.76377C27.0473 5.70865 27.0473 6.65353 27.0473 7.63778C27.0473 8.18896 26.9292 8.85826 27.0473 9.40944C27.1654 9.99999 27.6378 9.99999 27.7166 9.40944C27.8347 8.62203 27.7166 7.67715 27.7166 6.85038C27.7166 6.25983 27.5985 5.59054 27.9134 5.1181C28.3465 4.40944 29.2126 3.81889 29.7638 3.26771C30.3544 3.85826 31.6142 4.68503 31.8111 5.47243C32.126 6.73227 31.4961 8.22833 31.8111 9.48818C31.9685 9.99999 32.3622 10.0394 32.4804 9.48818C32.5591 9.13385 32.4804 8.62203 32.4804 8.22833C32.4804 6.61416 32.4804 5.03936 32.4804 3.42519C32.4804 2.67715 32.4804 1.92912 32.4804 1.14172C32.5197 0.905501 32.6378 0.196839 32.2835 0.0393591C32.4016 0.118099 32.1654 -1.09632e-05 32.2835 0.0393591ZM27.7166 4.29133C27.7166 3.2677 27.7166 2.20471 27.7166 1.18109C27.9528 1.41731 29.2914 2.40156 29.2914 2.75589C29.2914 3.11022 27.9922 4.05511 27.7166 4.29133ZM30.2756 2.75589C30.7874 2.24408 31.2993 1.73227 31.8504 1.18109C31.8504 2.20471 31.8504 3.2677 31.8504 4.29133C31.2993 3.77952 30.7874 3.2677 30.2756 2.75589Z" fill="#F6C866"/>
</g>
<defs>
<clipPath id="clip0">
<rect width="32.5591" height="10" fill="white"/>
</clipPath>
</defs>
</svg>

<svg width="33" height="10" fill="none" xmlns="http://www.w3.org/2000/svg"><g clip-path="url(#clip0)" fill="#F6C866"><path d="M3.504 9.921c-.709 0-.354-4.724-.354-5.354 0-.709 0-.748-.512-1.26-.63-.67-1.26-1.3-1.89-1.968v6.417c0 .315.236 2.126-.354 2.126S.039 8.189.039 7.874V3.78c0-.985-.157-2.087 0-3.071.237-1.142 1.103.078 1.496.472.63.67 1.733 1.457 2.205 2.244.197.315.118.748.118 1.142v2.165c-.04.394.276 3.19-.354 3.19zm8.936-7.086c-.55-.552-1.101-1.103-1.653-1.654-.275-.276-1.26-1.653-1.653-.984-.236.433-.04 1.457-.04 1.929v6.968c0 .197-.078.552.119.71.393.354.55-.158.59-.434.158-.945-.04-1.968 0-2.874.04-.709.551-1.024 1.063-1.535.236-.276 2.008-1.693 1.575-2.126zM9.765 5.079V1.142c.354.354.708.708 1.023 1.063.158.157.906.708.906.905 0 .197-.827.827-.984.984-.276.315-.59.63-.945.985zM23.504 10c-.394 0-.866-.748-1.102-.945-.394-.394-1.024-1.338-1.536-1.535-.276-.118-.236-.04-.551.275L18.7 9.41c-.315.315-.709.827-.985.158-.078-.197 0-.63 0-.827V4.567c0-1.26-.039-2.52 0-3.78 0-.315-.078-.787.394-.748.355.04.866.788 1.063.985.355.354.945 1.22 1.418 1.417.314.118.314-.04.63-.354L22.756.55c.276-.275 1.417-1.063.984 0-.197.433-.905.906-1.26 1.26-.433.433-.905 1.142-1.456 1.457-.788.433-2.087-1.457-2.638-2.008v7.52l1.496-1.497c.433-.433.63-.826 1.22-.433.63.394 1.142 1.142 1.654 1.654.118.04 1.732 1.496.748 1.496zM32.283.04c-.55-.237-2.126 1.81-2.52 2.204L28.229.71c-.315-.315-.905-1.103-1.18-.315-.158.433 0 1.141 0 1.574v5.67c0 .551-.119 1.22 0 1.771.117.591.59.591.669 0 .118-.787 0-1.732 0-2.559 0-.59-.118-1.26.196-1.732.433-.709 1.3-1.3 1.85-1.85.591.59 1.851 1.417 2.048 2.204.315 1.26-.315 2.756 0 4.016.157.512.551.551.67 0 .078-.354 0-.866 0-1.26V1.142c.039-.236.157-.945-.198-1.103.119.08-.118-.039 0 0zm-4.566 4.25V1.18c.236.236 1.574 1.22 1.574 1.575 0 .354-1.299 1.3-1.574 1.535zm2.559-1.535L31.85 1.18v3.11a58.775 58.775 0 01-1.574-1.535z"/></g><defs><clipPath id="clip0"><path fill="#fff" d="M0 0h32.559v10H0z"/></clipPath></defs></svg>
